icons/line/arrow-circle-right.svg

<svg width="24" height="24" viewBox="0 0 24 24" fill="none" xmlns="http://www.w3.org/2000/svg">
<path fill-rule="evenodd" clip-rule="evenodd" d="M4 12C4 7.58172 7.58172 4 12 4C16.4183 4 20 7.58172 20 12C20 16.4183 16.4183 20 12 20C7.58172 20 4 16.4183 4 12ZM12 2C6.47715 2 2 6.47715 2 12C2 17.5228 6.47715 22 12 22C17.5228 22 22 17.5228 22 12C22 6.47715 17.5228 2 12 2ZM15.7071 11.2929L12.7071 8.29289C12.3166 7.90237 11.6834 7.90237 11.2929 8.29289C10.9024 8.68342 10.9024 9.31658 11.2929 9.70711L12.5858 11H9C8.44772 11 8 11.4477 8 12C8 12.5523 8.44772 13 9 13H12.5858L11.2929 14.2929C10.9024 14.6834 10.9024 15.3166 11.2929 15.7071C11.6834 16.0976 12.3166 16.0976 12.7071 15.7071L15.7071 12.7071C16.0976 12.3166 16.0976 11.6834 15.7071 11.2929Z" fill="currentColor"/>
</svg>

<svg width="24" height="24" fill="none" xmlns="http://www.w3.org/2000/svg"><path fill-rule="evenodd" clip-rule="evenodd" d="M4 12a8 8 0 1116 0 8 8 0 01-16 0zm8-10C6.477 2 2 6.477 2 12s4.477 10 10 10 10-4.477 10-10S17.523 2 12 2zm3.707 9.293l-3-3a1 1 0 10-1.414 1.414L12.586 11H9a1 1 0 100 2h3.586l-1.293 1.293a1 1 0 001.414 1.414l3-3a1 1 0 000-1.414z" fill="currentColor"/></svg>
